Papirus/64x64/apps/appimagekit-unityhub.svg

<svg width="64" height="64" version="1.1" xmlns="http://www.w3.org/2000/svg">
 <rect transform="matrix(0,-1,-1,0,0,0)" x="-60" y="-60" width="56" height="56" rx="2.8" ry="2.8" style="fill:#e4e4e4"/>
 <path d="m 44,14 -15,4 -2.308594,4 H 22 L 11,33 22,44 h 4.691406 L 29,48 44,52 48,37 45.691406,33 48,29 Z M 38.375,19.744141 31.876953,31 H 18.789062 l 8.226563,-8.228516 z m 3.462891,2 3,11.255859 -3,11.25586 L 35.339844,33 Z M 18.789062,35 H 31.876953 L 38.375,46.25586 27.015625,43.22852 Z" style="opacity:.2"/>
 <path d="m 4,57.199219 v 1 C 4,59.749197 5.2496034,61 6.8007812,61 H 57.199219 C 58.749196,61 60,59.749197 60,58.199219 v -1 C 60,58.749197 58.749196,60 57.199219,60 H 6.8007812 C 5.2496034,60 4,58.749197 4,57.199219 Z" style="opacity:.2"/>
 <path d="M 6.8007812,4 C 5.2496034,4 4,5.2495827 4,6.8002055 V 7.8 C 4,6.2493772 5.2496034,4.9997945 6.8007812,4.9997945 H 57.199219 C 58.749196,4.9997945 60,6.2493773 60,7.8 V 6.8002055 C 60,5.2495828 58.749196,4 57.199219,4 Z" style="fill:#ffffff;opacity:.3"/>
 <path d="m 44,13 -15,4 -2.308594,4 H 22 L 11,32 22,43 h 4.691406 L 29,47 44,51 48,36 45.691406,32 48,28 Z M 38.375,18.744141 31.876953,30 H 18.789062 l 8.226563,-8.228516 z m 3.462891,2 3,11.255859 -3,11.255859 L 35.339844,32 Z M 18.789062,34 H 31.876953 L 38.375,45.255859 27.015625,42.228516 Z" style="fill:#303030"/>
</svg>

<svg xmlns="http://www.w3.org/2000/svg" width="64" height="64" version="1.1">
 <rect style="opacity:0.2" width="56" height="56" x="4" y="5" rx="2.8" ry="2.8"/>
 <rect style="fill:#e4e4e4" width="56" height="56" x="4" y="4" rx="2.8" ry="2.8"/>
 <path style="opacity:0.2;fill:#ffffff" d="M 6.8,4 C 5.2488,4 4,5.2488 4,6.8 V 7.8 C 4,6.2488 5.2488,5 6.8,5 H 57.2 C 58.751,5 60,6.2488 60,7.8 V 6.8 C 60,5.2488 58.751,4 57.2,4 Z"/>
 <path style="opacity:0.2" d="M 44,14 29,18 26.691,22 H 22 L 11,33 22,44 H 26.691 L 29,48 44,52 48,37 45.691,33 48,29 Z M 38.375,19.744 31.877,31 H 18.789 L 27.016,22.771 Z M 41.838,21.744 44.838,33 41.838,44.256 35.34,33 Z M 18.789,35 H 31.877 L 38.375,46.256 27.016,43.229 Z"/>
 <path style="fill:#303030" d="M 44,13 29,17 26.691,21 H 22 L 11,32 22,43 H 26.691 L 29,47 44,51 48,36 45.691,32 48,28 Z M 38.375,18.744 31.877,30 H 18.789 L 27.016,21.771 Z M 41.838,20.744 44.838,32 41.838,43.256 35.34,32 Z M 18.789,34 H 31.877 L 38.375,45.256 27.016,42.229 Z"/>
</svg>
